icons/svgs/arrow-right-arrow-left-solid.svg

<svg width="24" height="24" viewBox="0 0 24 24" fill="none" xmlns="http://www.w3.org/2000/svg">
<path d="M20.3594 7.89844L16.6094 11.6484C16.1406 12.1562 15.3203 12.1562 14.8516 11.6484C14.3438 11.1797 14.3438 10.3594 14.8516 9.89062L16.4531 8.25H4.5C3.79688 8.25 3.25 7.70312 3.25 7C3.25 6.33594 3.79688 5.75 4.5 5.75H16.4531L14.8516 4.14844C14.3438 3.67969 14.3438 2.85938 14.8516 2.39062C15.3203 1.88281 16.1406 1.88281 16.6094 2.39062L20.3594 6.14062C20.8672 6.60938 20.8672 7.42969 20.3594 7.89844ZM7.35156 21.6484L3.60156 17.8984C3.09375 17.4297 3.09375 16.6094 3.60156 16.1406L7.35156 12.3906C7.82031 11.8828 8.64062 11.8828 9.10938 12.3906C9.61719 12.8594 9.61719 13.6797 9.10938 14.1484L7.50781 15.75H19.5C20.1641 15.75 20.75 16.3359 20.75 17C20.75 17.7031 20.1641 18.25 19.5 18.25H7.50781L9.10938 19.8906C9.61719 20.3594 9.61719 21.1797 9.10938 21.6484C8.64062 22.1562 7.82031 22.1562 7.35156 21.6484Z" fill="black"/>
</svg>

<svg xmlns="http://www.w3.org/2000/svg" width="24" height="24" fill="currentColor" class="icon-arrow-right-arrow-left-solid" viewBox="0 0 24 24">
  <mask id="a" width="18" height="21" x="3" y="2" maskUnits="userSpaceOnUse" style="mask-type:alpha">
    <path d="m20.36 7.898-3.75 3.75a1.205 1.205 0 0 1-1.758 0 1.205 1.205 0 0 1 0-1.757l1.601-1.641H4.5c-.703 0-1.25-.547-1.25-1.25 0-.664.547-1.25 1.25-1.25h11.953l-1.601-1.602a1.205 1.205 0 0 1 0-1.757 1.205 1.205 0 0 1 1.757 0l3.75 3.75a1.203 1.203 0 0 1 0 1.757M7.351 21.648l-3.75-3.75a1.205 1.205 0 0 1 0-1.757l3.75-3.75a1.205 1.205 0 0 1 1.757 0 1.203 1.203 0 0 1 0 1.757l-1.6 1.602H19.5c.664 0 1.25.586 1.25 1.25 0 .703-.586 1.25-1.25 1.25H7.508l1.601 1.64c.508.47.508 1.29 0 1.758a1.205 1.205 0 0 1-1.757 0"/>
  </mask>
  <g mask="url(#a)">
    <path d="M0 0h24v24H0z"/>
  </g>
</svg>
